X:1
T:Krewson, SM
T:Krewson, SM
T:Ronald Alan Matthews, 1985
T:© 1990 RAM Music Publications Courtesy of the Cyber Hymnal™
C:Ronald Alan Matthews, 1985
Z:© 1990 RAM Music Publications
Z:Courtesy of the Cyber Hymnal™
%%score ( 1 2 ) ( 3 4 )
L:1/8
Q:1/4=110
M:4/4
K:A
V:1 treble 
V:2 treble 
V:3 bass 
V:4 bass 
V:1
 [CA]2 [DG][DF] [CE]2 [B,E]2 | F6 [CE]2 | [DF]2 [EA]2 [EG]2 [^DF]2 | E6 [EG]2 | %4
 [EA]2 [CA]2 [FB]2 [EB]2 | [Ec]2 (Bc) [Dd]2 [FB]2 | [FA]2 c2 [FB]2 [EG]2 | [EA]8 |] %8
V:2
 x8 | (A,4 D2) x2 | x8 | E6 x2 | x8 | x2 E2 x4 | x2 (AG) x4 | x8 |] %8
V:3
 [A,,E,]2 [B,,A,][B,,A,] [C,A,]2 [A,,G,]2 | ([D,F,]2 [E,G,]2 [F,A,]2) A,2 | %2
 [D,A,]2 [A,,C]2 [E,B,]2 [B,,B,]2 | ([E,G,]2 [F,A,]2 [G,B,]2) [D,B,]2 | %4
 [C,A,]2 [F,A,]2 [D,A,]2 [E,G,]2 | A,2 [=G,A,]2 [F,A,]2 [B,,D]2 | [F,C]2 [C,E]2 (DC) [E,B,]2 | %7
 [A,,C]8 |] %8
V:4
 x8 | x6 A,2 | x8 | x8 | x8 | A,2 x6 | x4 D,2 x2 | x8 |] %8

